!!!!SEGMENT: pl-kk--kk-i-6--048_gorczycki-grzegorz-gerwazy--insignis-mater.krn
!!!cenid: 16xx:1044
!!!COM: Gorczycki, Grzegorz Gerwazy
!!!COM-rismID: pe30009207
!!!CDT: ~1666-1734/04/30
!!!CNT: Polish
!!!OTL: Insignis Mater
!!!PDT:
!!!AGN: Sacred
!!!YEC: Copyright 2022 Narodowy Instytut Fryderyka Chopina (https://polishscores.org)
!!!YEM: License CC-BY-4.0 (https://creativecommons.org/licenses/by/4.0)
!!!SMS-siglum: PL-Kk
!!!SMS-shelfmark: Kk.I.6
!!!SMS-shelfwork: 048 W
!!!SMS-variant:
!!!SMS-altvar:
!!!NIFC-rismSourceID: 1001135513
!!!NIFC-rismChildID: 1001136540
!!!NIFC-islandoraID: pl-kk:1634
!!!URL-pdf-islandora: https://repozytorium.nifc.pl/islandora/object/pl-kk%3A1634/datastream/PDF/view
!!!URL-scan: https://polish.musicsources.pl/pl/lokalizacje/galeria/rekopisy/6133 @EN{Scan on Polish Music Sources Website} @PL{Skany w portalu Dziedzictwo Muzyki Polskiej w otwartym dostępie}
!!!IIIF:
!!!ONB-nifc: UWAGA: C (skan 0084, s. 164-165), T (skan 0195, s. 194-195), B (skan 0308, s. 198-199) Następny utwór: Salve Mundi
!!!AIN: 1 empty 1 tenor 1 vox
!!!key:
**kern	**text	**text	**text	**text	**kern	**text	**text	**text	**text	**kern	**text	**text	**text	**text	**text
*group1	*	*	*	*	*group1	*	*	*	*	*group1	*	*	*	*	*
*part3	*	*	*	*	*part2	*	*	*	*	*part1	*	*	*	*	*
*staff3	*	*	*	*	*staff2	*	*	*	*	*staff1	*	*	*	*	*
*Iempty	*	*	*	*	*Itenor	*	*	*	*	*Ivox	*	*	*	*	*
*I"Baſsus.	*	*	*	*	*I"Tenor.	*	*	*	*	*I"Cantus.	*	*	*	*	*
*I'[B]	*	*	*	*	*I'[T]	*	*	*	*	*I'[S]	*	*	*	*	*
*clefF4	*	*	*	*	*clefC4	*	*	*	*	*clefC4	*	*	*	*	*
*k[f#]	*	*	*	*	*k[f#]	*	*	*	*	*k[f#]	*	*	*	*	*
*e:	*	*	*	*	*e:	*	*	*	*	*e:	*	*	*	*	*
*M3/2	*	*	*	*	*M3/2	*	*	*	*	*M3/2	*	*	*	*	*
=1-	=1-	=1-	=1-	=1-	=1-	=1-	=1-	=1-	=1-	=1-	=1-	=1-	=1-	=1-	=1-
*2\right	*	*	*	*	*2\right	*	*	*	*	*	*	*	*	*	*
2E\	In-	Te	Com-	Mor-	2B\	In-	Te	Com-	Mor-	2E/	In-	Te	Com-	Mor-	.
2E\	-sig-	o	-ge-	-tis-	2B\	-sig-	o	-ge-	-tis-	2G/	-sig-	o	-ge-	-tis-	.
2D/	-nis	Re-	-sie	-q(ue)	2d\	-nis	Re-	-sie	-q(ue)	2A/	-nis	Re-	-sie	-q(ue)	.
=2-	=2-	=2-	=2-	=2-	=2-	=2-	=2-	=2-	=2-	=2-	=2-	=2-	=2-	=2-	=2-
!LO:TX:t=P:problem=4\middle&colon; global	!	!	!	!	!	!	!	!	!	!	!	!	!	!	!
4GG/	Ma-	-gi-	fa-	ho-	1d	Ma-	-gi-	fa-	ho-	1B	Ma-	-gi-	fa-	ho-	.
4AA/	.	.	.	.	.	.	.	.	.	.	.	.	.	.	.
4BB/	.	.	.	.	.	.	.	.	.	.	.	.	.	.	.
4C/	.	.	.	.	.	.	.	.	.	.	.	.	.	.	.
2D/	-ter	-na	-nem	-râ	2d\	-ter	-na	-nem	-ra	2A/	-ter	-na	-nem	-ra	.
=3-	=3-	=3-	=3-	=3-	=3-	=3-	=3-	=3-	=3-	=3-	=3-	=3-	=3-	=3-	=3-
2.E\	In-	brat-	per-	o	2.B\	In-	brat-	per-	o	2.G/	In-	o-	per-	o	.
!	!	!	!	!	!LO:TX:t=P:problem=4\middle&colon; global	!	!	!	!	!	!	!	!	!	!
4E\	-car-	.	-sem	cle-	4B\	-car-	.	-sem	cle-	4G/	-car-	-rat	-sem	cle-	.
2A\	-na-	-gens	at-	-mens	2c\	-na-	-gens	at-	-mens	2A/	-na-	-gens	at-	-mens	.
=4-	=4-	=4-	=4-	=4-	=4-	=4-	=4-	=4-	=4-	=4-	=4-	=4-	=4-	=4-	=4-
2E\	-ti	Po-	-q(ue)	Ma-	2B\	-ti	Po-	-q(ue)	Ma-	2G/	-ti	Po-	-q(ue)	Ma-	.
1BB	De-	-lo-	bel-	-ri-	1B	De-	-lo-	bel-	-ri-	1F#X	De-	-lo-	bel-	-ri-	.
=5-	=5-	=5-	=5-	=5-	=5-	=5-	=5-	=5-	=5-	=5-	=5-	=5-	=5-	=5-	=5-
!LO:TX:t=P:problem=kreska pseudotaktowa	!	!	!	!	!LO:TX:t=P:problem=kreska pseudotaktowa	!	!	!	!	!LO:TX:t=P:problem=kreska pseudotaktowa	!	!	!	!	!
1.E	-i	-na	-la	-a	1.B	-i	-na	-la	-a	1.E	-i	-na	-la	-a	.
=6-	=6-	=6-	=6-	=6-	=6-	=6-	=6-	=6-	=6-	=6-	=6-	=6-	=6-	=6-	=6-
2E\	so-	jam	re-	per	2B\	so-	jam	re-	per	2E/	so-	jam	re-	per	.
*	*	*	*	*	*	*	*	*	*	*2\right	*	*	*	*	*
2D/	-la	jam	-pel-	Te	2d\	-la	jam	-pel-	Te	2B\	-la	jam	-pel-	Te	.
2C#X/	pec-	la-	-le	sit	2A#X/	pec-	la-	-le	sit	2c#X\	pec-	la-	-le	sit	.
=7-	=7-	=7-	=7-	=7-	=7-	=7-	=7-	=7-	=7-	=7-	=7-	=7-	=7-	=7-	=7-
4BB/	-ca-	-ben-	vi-	no-	1B	-ca-	-ben-	vi-	no-	1d	-ca-	-ben-	vi-	no-	.
4C#X/	.	.	.	.	.	.	.	.	.	.	.	.	.	.	.
4D/	.	.	.	.	.	.	.	.	.	.	.	.	.	.	.
4E\	.	.	.	.	.	.	.	.	.	.	.	.	.	.	.
2F#\	-ti	-ti	-res	-bis	2A#X/	-ti	-ti	-res	-bis	2c#X\	-ti	-ti	-res	-bis	.
=8-	=8-	=8-	=8-	=8-	=8-	=8-	=8-	=8-	=8-	=8-	=8-	=8-	=8-	=8-	=8-
2.G\	non	o-	Ros-	pa-	2.B\	non	o-	Ros-	pa-	2.B\	non	o-	Ros-	pa-	.
!	!	!	!	!	!	!	!	!	!	!LO:TX:t=P:problem=4\middle&colon; global	!	!	!	!	!
4F#\	sub-	-pe	-ti-	-tens	4B\	sub-	-pe	-ti-	-tens	4B\	sub-	-pe	-ti-	-tens	.
2E\	-ja-	ad-	-um-	go-	2B\	-ja-	ad-	-um-	go-	2e\	-ja-	ad-	-um-	go-	.
!	!LO:PB:g=original	!	!	!	!	!	!	!	!	!	!	!	!	!	!
=9-	=9-	=9-	=9-	=9-	=9-	=9-	=9-	=9-	=9-	=9-	=9-	=9-	=9-	=9-	=9-
2BB/	-ces	-sis	-q(ue)	-li	2B\	-ces	-sis	-q(ue)	-li	2d\	-ces	-sis	-q(ue)	-li	.
2F#\	le-	pro-	te-	vi-	2B\	le-	pro-	te-	vi-	1c#X	le-	pro-	te-	vi-	.
2FF#/	.	.	.	.	2A#X/	.	.	.	.	.	.	.	.	.	.
=10-	=10-	=10-	=10-	=10-	=10-	=10-	=10-	=10-	=10-	=10-	=10-	=10-	=10-	=10-	=10-
1.BB	-gi,-	-nâ,	-la.	-a,	1.B	-gi-	-nâ	-la	-a	1.B	-gi-	-na	-la	-a	.
!	!	!	!	!	!LO:PB:g=original	!	!	!	!	!LO:PB:g=original	!	!	!	!	!
=11-	=11-	=11-	=11-	=11-	=11-	=11-	=11-	=11-	=11-	=11-	=11-	=11-	=11-	=11-	=11-
2GG/	-nè	pri-	Pa-	o	2B\	-ne	pri-	Pa-	o	2d\	-ne	pri-	Pa-	o	.
2AA/	nos	-mo	-tro-	pi-	2Any/	nos	-mo	-tro-	pi-	2cn\	nos	-mo	-tro-	[[Wir-	pi-
4BB/	la-	pec-	-na	-a	2G/	la-	pec-	-na	-a	2B\	la-	pec-	-na	-go]]	-a
4Cny/	.	.	.	.	.	.	.	.	.	.	.	.	.	.	.
=12-	=12-	=12-	=12-	=12-	=12-	=12-	=12-	=12-	=12-	=12-	=12-	=12-	=12-	=12-	=12-
1D	-ba-	-ca-	nos-	Ma-	(>2.d\	-ba-	-ca-	nos-	Ma-	1A	-ba-	-ca-	nos-	Ma-	.
.	.	.	.	.	4c\)	.	.	.	.	.	.	.	.	.	.
2GG/	-m(ur)	-to	-tra	-ter	2B\	-mur	-to	-tra	-ter	2G/	-mur	-to	-tra	-ter	.
=13-	=13-	=13-	=13-	=13-	=13-	=13-	=13-	=13-	=13-	=13-	=13-	=13-	=13-	=13-	=13-
2.D/	si-	in-	si-	si-	2.F#X/	si-	in-	si-	si-	2.A\	si-	in-	si-	si-	.
4BB/	-nè	-con-	-nè	-nè	4G/	-nè	-con-	-nè	-ne	4B\	-ne	-con-	-ne	-ne	.
2AA/	la-	-ta-	la-	la-	2A/	la-	-ta-	la-	la-	2c\	la-	-ta-	la-	la-	.
=14-	=14-	=14-	=14-	=14-	=14-	=14-	=14-	=14-	=14-	=14-	=14-	=14-	=14-	=14-	=14-
2GG/	-be	-mi-	-be	-be	2B\	-be	-mi-	-be	-be	2B\	-be	-mi-	-be	-be	.
2C/	na-	-na-	na-	na-	(>2c\	na-	-na-	na-	na-	1A	na-	-na-	na-	na-	.
2D/	.	.	.	.	2A\)	.	.	.	.	.	.	.	.	.	.
=15-	=15-	=15-	=15-	=15-	=15-	=15-	=15-	=15-	=15-	=15-	=15-	=15-	=15-	=15-	=15-
!LO:TX:t=P:problem=kreska pseudotaktowa	!	!	!	!	!LO:TX:t=P:problem=kreska pseudotaktowa	!	!	!	!	!LO:TX:t=P:problem=kreska pseudotaktowa	!	!	!	!	!
1.GG	-ta	-ta	-ta	-ta	1.B	-ta	-ta	-ta	-ta	1.G	-ta	-ta	-ta	-ta	.
=16-	=16-	=16-	=16-	=16-	=16-	=16-	=16-	=16-	=16-	=16-	=16-	=16-	=16-	=16-	=16-
1D	Vir-	Vir-	Vir-	Vir-	1d	Vir-	Vir-	Vir-	Vir-	1A	Vir-	Vir-	Vir-	Vir-	.
2G\	-go	-go	-go	-go	2B\	-go	-go	-go	-go	2B\	-go	-go	-go	-go	.
=17-	=17-	=17-	=17-	=17-	=17-	=17-	=17-	=17-	=17-	=17-	=17-	=17-	=17-	=17-	=17-
2E\	Be-	Be-	Be-	Be-	2B\	Be-	Be-	Be-	Be-	2G/	Be-	Be-	Be-	Be-	.
1BB	-a-	-a-	-a-	-a-	1B	-a-	-a-	-a-	-a-	1F#X	-a-	-a-	-a-	-a-	.
=18-	=18-	=18-	=18-	=18-	=18-	=18-	=18-	=18-	=18-	=18-	=18-	=18-	=18-	=18-	=18-
!	!	!	!	!	!	!	!	!	!	!LO:N:vis=1	!	!	!	!	!
1.E;;	-ta.	-ta.	-ta.	-ta.	1.B;>	-ta.	-ta.	-ta.	-ta.	1.E;>	-ta.	-ta.	-ta.	-ta	.
=-	=-	=-	=-	=-	=-	=-	=-	=-	=-	=-	=-	=-	=-	=-	=-
*-	*-	*-	*-	*-	*-	*-	*-	*-	*-	*-	*-	*-	*-	*-	*-
!!!system-decoration: [(g1)]
!!!RDF**kern: > = above
!!!RDF**kern: < = below
!!!ENC: Andrzej Gręziak
!!!END: 2021-10-24
!!!EED: Jędrzej Mróz
!!!ESR: 2021-10-26
